X: 122
T: Girvan Water, a Jig
C: attr. John French (1753-1803)
R: jig
Q: "Slowish"
B: "John French Collection", John French ed. p.12 #2
S: http://www.heallan.com/french.asp
Z: 2012 John Chambers <jc:trillian.mit.edu>
M: 6/8
L: 1/8
K: Dmix
f |\
d2A AGF | d2A A2f | d2A AGF | BGE E2f |\
d2A AGF | d2f e2g | fed cdB | AFF ~F2 :|
|: E |\
DFA AFA | dfd TBAB | AFD FAd | BGE E2F |\
DFA AFA | dfd TBAB | dge fdB | AFF ~F2 :|

%%sep 2 1 500
%%sep 1 1 500

